X:1
T:Title
%%score { ( 1 3 ) | ( 2 4 ) }
L:1/8
Q:1/4=100
M:4/4
K:Bb
V:1 treble nm="Grand Piano"
V:3 treble 
V:2 bass 
V:4 bass 
V:1
 [DF]2 [B,D]>[CE] [DF]2 [FB]c | d2 B>c B2 A2 | c2 c>d e2 [FA][FA] | [FB]2 c>c d4 | %4
w: Ira~B.~Wilson * * * * *||||
 [DF]2 [B,D]>[CE] [DF]2 [FB]c | d2 B>c B2 A2 | c2 c>c c2 dB | A2 [=EA]>[EG] z2 _E2 | %8
w: ||||
 [DF]2 [Fd]>[F_d] [F=d]4 | [EG]2 [Ge]>[Fd] [Ge]4 | F2 [FB]c d f2 d | z4 c4 | %12
w: ||||
 [DF]2 [Fd]>[=E_d] [F=d]4 | [EG]2 [Ge]>[Fd] [Ge]4 | F2 [FB]c d [_Af]2 [Ge] | d2 d>c [DB]4 |] %16
w: ||||
V:2
 [B,,B,]2 [B,,F,]>[B,,F,] [B,,B,]2 [D,B,][K:treble][G,B,F] | %1
 [B,F]2[K:bass] [B,D]>[B,E] [F,CE]2 [F,CE]2 | [F,A,F]2 [F,A,F]>[F,B,F] [F,CF]2 [E,C][E,C] | %3
 [D,B,]2[K:treble] [F,A,F]>[F,A,F] [B,F]4 | %4
 [B,,B,]2 [A,,F,]>[B,,F,] [B,,B,]2 [D,B,][K:treble][F,A,F] | %5
 [B,F]2[K:bass] [B,D]>[B,E] [F,CE]2 [F,CE]2 | %6
 [F,A,F]2[K:treble] [G,B,=E]>[G,B,E] [A,CF]2 [B,F][B,DF] | [CF]2[K:bass] [C,C]>[C,B,] [F,A,]4 | %8
 [B,,B,]2 [B,,B,]>[B,,B,] [B,,B,]4 | [E,B,]2 [E,B,]>[E,B,] [E,B,]4 | %10
 [D,B,]2 [D,B,][K:treble][F,A,F] [B,F] [B,DF]2 [B,F] | z4[K:bass] F2 z2 | %12
 [B,,B,]2 [B,,B,]>[B,,B,] [B,,B,]4 | [E,B,]2 [E,B,]>[E,B,] [E,B,]4 | %14
 [D,B,]2 [D,B,][K:treble][F,A,F] [B,F][K:bass] [D,B,]2 [E,B,] | %15
 [F,B,F]2 [F,A,F]>[F,A,E] [B,,B,]4 |] %16
V:3
 x8 | x8 | x8 | x8 | x8 | x8 | x8 | z4 F4 | x8 | x8 | x8 | c2 [=Ec]>[Ed] z2 _E2 | x8 | x8 | x8 | %15
 x8 |] %16
V:4
 x7[K:treble] x | x2[K:bass] x6 | x8 | x2[K:treble] x6 | x7[K:treble] x | x2[K:bass] x6 | %6
 x2[K:treble] x6 | x2[K:bass] x6 | x8 | x8 | x3[K:treble] x5 | %11
 [G,B,=E]2[K:bass] [C,B,]>[C,B,] [F,A,]4 | x8 | x8 | x3[K:treble] x2[K:bass] x3 | x8 |] %16

